X:1
T:Kennebunkport, 886.886
T:Kennebunkport, 886.886
T:Joseph Barnby, 1872
T:Public Domain Courtesy of the Cyber Hymnal™
C:Joseph Barnby, 1872
Z:Public Domain
Z:Courtesy of the Cyber Hymnal™
%%score ( 1 2 ) ( 3 4 )
L:1/8
Q:1/4=106
M:4/4
K:Eb
V:1 treble 
V:2 treble 
V:3 bass 
V:4 bass 
V:1
 [EG]2 [DF]2 E2 [Ec]2 [_DB]2 | [_DB]2 [CA]2 [B,G]2 [B,G]2 | [C=A]2 [B,B]2 [Ce]2 [Dd]2 | %3
 c2 [Ec]2 [DB]2 [C=A]2 | [=B,G]2 [_B,G]2 [=A,G]2 [D^F]2 | [DG]6 [=B,D]2 | [CE]2 [DF]2 [EG]2 [Ec]2 | %7
 [EB]2 [DA]2 [EG]2 [DF]2 | [EG]2 [E=A]2 [DB]2 [Ge]2 | [Ec]2 [Ec]2 [DB]2 [FB]2 | %10
 [Ee]2 [FB]2"^rall." (AG) [DF]2 | E6 x2 |] x6 |] %13
V:2
 x4 E2 x4 | x8 | x8 | (ED) x6 | x8 | x8 | x8 | x8 | x8 | x8 | x4 C2 x2 | E6 x2 |] x6 |] %13
V:3
 [E,B,]2 x8 | [B,,A,]2 [C,G,]2 [C,A,]2 [G,,E,]2 | [A,,E,]2 [C,E,]2 E,2 [E,G,]2 | %3
 [E,F,]2 [D,F,]2 [=A,,F,]2 [B,,B,]2 | [F,B,]2 [F,=A,]2 [B,,B,]2 [C,E]2 | %5
 [D,D]2 [D,D]2 [D,D]2 [D,=A,]2 | [G,,=B,]6 [G,,G,]2 | [C,G,]2 [C,F,]2 [C,E,]2 [A,,F,]2 | %8
 [B,,F,]2 [B,,B,]2 [E,B,]2 [B,,B,]2 | [E,B,]2 [C,C]2 [G,B,]2 [E,B,]2 | %10
 (B,G,) [F,=A,]2 B,2 [_A,D]2 | [G,E]2 [G,,_D]2 (CB,) [B,,A,]2 |] [E,G,]6 |] %13
V:4
 x10 | x8 | x4 E,2 x2 | x8 | x8 | x8 | x8 | x8 | x8 | x8 | F,2 x B,2 x3 | x4 A,,2 x2 |] x6 |] %13

